X:1
T:Old Shoes and Leggins
M:3/4
L:1/4
K:F
 z2 C| A A A| F F F| D F D| C2 z| A2 F| F E D| E G2-| G2 C| A A A|\
 F- E F| D D D| B2 D/2D/2| C2 C| E D E| F F2-| F2 z|
